X: 26016
T: Mazurka D'Embrault
R: mazurka
M: 3/4
K: Aminor
E2|A2 AB ce|d3 e dB|cA EA cA|B^G EG BG|
AE AB ce|d3 e dB|cA E^G BG|A4:|
K:Amaj
AB|c2 cB AG|F4 Bc|dB GB dB|c2 AG AB|
c2 cB AG|F4 Bc|d2 dB GB|A4:|

